common/src/main/resources/icons/plugins/resharper/FeaturesDiagramming/GroupingFolder.svg

<svg xmlns="http://www.w3.org/2000/svg" width="16" height="16" fill="#F78C6C" data-big="true" viewBox="0 0 24 24"><path d="M22 4a2 2 0 0 1 2 2v10a2 2 0 0 1-2 2H6a2 2 0 0 1-2-2V4a2 2 0 0 1 2-2h6l2 2zM2 6v14h18v2H2a2 2 0 0 1-2-2V6zm4 0v10h16V6z"/></svg>

<!--
  - The MIT License (MIT)
  -
  - Copyright (c) 2015-2024 Elior "Mallowigi" Boukhobza
  -
  - Permission is hereby granted, free of charge, to any person obtaining a copy
  - of this software and associated documentation files (the "Software"), to deal
  - in the Software without restriction, including without limitation the rights
  - to use, copy, modify, merge, publish, distribute, sublicense, and/or sell
  - copies of the Software, and to permit persons to whom the Software is
  - furnished to do so, subject to the following conditions:
  -
  - The above copyright notice and this permission notice shall be included in all
  - copies or substantial portions of the Software.
  -
  - THE SOFTWARE IS PROVIDED "AS IS", WITHOUT WARRANTY OF ANY KIND, EXPRESS OR
  - IMPLIED, INCLUDING BUT NOT LIMITED TO THE WARRANTIES OF MERCHANTABILITY,
  - FITNESS FOR A PARTICULAR PURPOSE AND NONINFRINGEMENT. IN NO EVENT SHALL THE
  - AUTHORS OR COPYRIGHT HOLDERS BE LIABLE FOR ANY CLAIM, DAMAGES OR OTHER
  - LIABILITY, WHETHER IN AN ACTION OF CONTRACT, TORT OR OTHERWISE, ARISING FROM,
  - OUT OF OR IN CONNECTION WITH THE SOFTWARE OR THE USE OR OTHER DEALINGS IN THE
  - SOFTWARE.
  -->


<svg data-big="true" xmlns="http://www.w3.org/2000/svg" version="1.1" width="16px" height="16px" fill="#F78C6C"
     viewBox="0 0 24 24">
  <path
    d="M22,4A2,2 0 0,1 24,6V16A2,2 0 0,1 22,18H6A2,2 0 0,1 4,16V4A2,2 0 0,1 6,2H12L14,4H22M2,6V20H20V22H2A2,2 0 0,1 0,20V11H0V6H2M6,6V16H22V6H6Z"/>
</svg>
